X: 359
T: Bir Dilbere Dil Düştü ki
C: Şakir Ağa
O: Turkey
F: http://compmusic.upf.edu/node/140
N: ferahnak--yuruksemai--yuruksemai--bir_dilbere--sakir_aga
N: makam= ferahnak
N: form= yuruksemai
N: usul= yuruksemai = 6/8
M: 6/8
L: 1/16
K: C ^f ^c  
Q: 1/4=108
%%MIDI tuningsystem comma53
f4f4 g4f4 e8  | f4d4 g4f4 e8  | f4d4 f4d4 f3ga3g  | \
w:  Bir  dil be re  dil   |  *  düş tü  ki  mah  |  *  bû bi  di lim  | 
f3ed3f e3dc3B A8  | 
w:  dir    | 
f4f4 g4f4 e8  | f4d4 g4f4 e8  | f4d4 f4d4 f3ga3g  | \
w:  Ref tâ rı  gü zel   |  *  ka me ti  ar  |  *  ar  be de lim  | 
f3ed3f e3dc3B A8  | 
w:  dir    | 
b3ag3b a3gf3e e8  | g3fe3d g3fe3d c3BA4  | \
w:  Gel   |  gel   | 
a6^g2 g3ff3e e3dc3B  | 
w:  gel   | 
B2c4B2 A4B2c2 d8  | A8 B4c4 d3ef3e  | \
w:  gel  *  *  *  gü lüm  ey   |  dil  sa na  hay  | 
d3cB3A G3BA3G F3ED4  | 
w:  ran    | 
A8 B4c4 d3ef3e  | d3cB3A G3BA3G F3ED4  | \
w:  Ey  me hi  dev  |  rân   | 
A8 B4c4 d3ef3e  | 
w:  dil  sa na  hay  | 
d3fe3g f3bagfe d8  | F4F4 G4F4 E8  | \
w:  ran    |  Lût fey le  a man   | 
A8 B4c4 d8  | A6G2 G2F2F2E2 E2D2{A}G2F2  | 
w:  ben de ni  ey   |  naz *  lı  *  câ *  nan   | 
F8 a3gf2g2 a8  | a4a4 c'2_7/8b2b2a2 a4^g4  | \
w:  vay   SAZ  |  Tî ri  ni *  ge *  hi   | 
a4d'4 a4a2g2 f8  | a4=c'2b2 b3aa3g f6e2  | 
w:  gam *  ze si  *  ger   |  ey *  *  le *  se  *  te'  | 
d3ef3e d2e2f2g2 a8  | a4a4 c'2_7/8b2b2a2 a4^g4  | \
w:  sîr    |  Tî ri  ni *  ge *  hi   | 
a4d'4 a4a2g2 f8  | 
w:  gam *  ze si  *  ger   | 
a4=c'2b2 b3aa3g f6e2  | d3ef3e d3cf2ed d8  | \
w:  ey *  *  le *  se  *  te'  |  sîr    | 
f4f4 g4f4 e8  | 
w:  Câ nım  da  no la   | 
f4d4 g4f4 e8  | f4d4 f4d4 f3ga3g  | f3ed3f e3dc3B A8  | 
w:  *  hay li  ze man  |  *  dır  e me lim  |  dir    | 
b3ag3b a3gf3e e8  | g3fe3d g3fe3d c3BA4  | \
w:  Gel   |  gel   | 
a6^g2 g3ff3e e3dc3B  | 
w:  gel   | 
B2c4B2 A4B2c2 d8  | A8 B4c4 d3ef3e  | \
w:  gel  *  *  *  gü lüm  ey   |  dil  sa na  hay  | 
d3cB3A G3BA3G F3ED4  | 
w:  ran    | 
A8 B4c4 d3ef3e  | d3cB3A G3BA3G F3ED4  | \
w:  Ey  me hi  dev  |  rân   | 
A8 B4c4 d3ef3e  | 
w:  dil  sa na  hay  | 
d3fe3g f3bagfe d8  | F4F4 G4F4 E8  | \
w:  ran    |  Lût fey le  a man   | 
A8 B4c4 d8  | A6G2 G2F2F2E2 E2D2{A}G2F2  | 
w:  ben de ni  ey   |  naz *  lı  *  câ *  nan   | 
F8 |
w:  vay    | 


